src/icons/tobi.svg

<svg
  viewBox="0 0 500 500"
  xml:space="preserve"
  xmlns="http://www.w3.org/2000/svg"
>
  <path
    d="M46 46v408h408V46H46zm243.8 231h-48.5v139.3h-35V277h-48.5v-30.7h132V277zm137.7 139.3h-112v-170h35v139.2h77v30.8z"
    fill="#c2185b"
  />
</svg>

<svg viewBox="0 0 500 500" xmlns="http://www.w3.org/2000/svg">
  <path
    d="M46 46V454H454V46H46ZM289.8 277H241.3V416.3H206.3V277H157.8V246.3H289.8V277ZM427.5 416.3H315.5V246.3H350.5V385.5H427.5V416.3Z"
    fill="#C2185B"
  />
</svg>
